X: 14
T: Tom Jones;  A Dance.
R: jig
Z: 2014 John Chambers <jc:trillian.mit.edu>
S: The Gentleman's Magazine v.20, April 1750, p.179
M: 6/8
L: 1/8
K: D
% - - - - - - - - - - - - - - - - - - - - - - - - - - - - -
|:\
a3 g3 | fdf ece | d2f ece | d2f ece |\
dcd ede | fef ^gfg | a2d cdB | A3- A3 :|
|:\
D2F E2G | F2A EFG | F2d AB=c | B3 B2F |\
GFG AGA | BAB cBc | d2G FGE | D3- D3 :|
% - - - - - - - - - - Dance description - - - - - - - - - -
%%begintext align
%% 1st couple turn round, hands single and cast off .| turn round, hands
%% single with the 3d couple, and left partners in the 2d couple's place :|
%% 1st couple whole figure at top |., right and left with the top couple :|: .
%%endtext

%%sep 1 1 500
%%sep 1 1 500
